public/images/plus.svg

<svg fill="none" height="14" viewBox="0 0 15 14" width="15" xmlns="http://www.w3.org/2000/svg"><path d="m6.76594 13.402c-.23986 0-.35979-.109-.35979-.327v-4.54656h-5.10257c-.23986 0-.359794-.11993-.359794-.3598v-1.99523c0-.23987.119934-.3598.359794-.3598h5.10257v-4.5138c0-.23987.11993-.3598.35979-.3598h2.09336c.23987 0 .3598.11993.3598.3598v4.5138h5.1026c.2398 0 .3598.11993.3598.3598v1.99523c0 .23987-.12.3598-.3598.3598h-5.1026v4.54656c0 .218-.11993.327-.3598.327z" fill="#ec03ff"/></svg>

<svg width="15" height="14" viewBox="0 0 15 14" fill="none" xmlns="http://www.w3.org/2000/svg">
<path d="M6.76594 13.402C6.52608 13.402 6.40615 13.293 6.40615 13.075V8.52844H1.30358C1.06372 8.52844 0.943786 8.40851 0.943786 8.16864V6.17341C0.943786 5.93354 1.06372 5.81361 1.30358 5.81361H6.40615V1.29981C6.40615 1.05994 6.52608 0.94001 6.76594 0.94001H8.8593C9.09917 0.94001 9.2191 1.05994 9.2191 1.29981V5.81361H14.3217C14.5615 5.81361 14.6815 5.93354 14.6815 6.17341V8.16864C14.6815 8.40851 14.5615 8.52844 14.3217 8.52844H9.2191V13.075C9.2191 13.293 9.09917 13.402 8.8593 13.402H6.76594Z" fill="#EC03FF"/>
</svg>
